src/images/medium.svg

<svg viewBox="0 0 640 512" xmlns="http://www.w3.org/2000/svg"><path d="m180.5 74.262c-99.687 0-180.5 81.371-180.5 181.738s80.819 181.738 180.5 181.738 180.5-81.365 180.5-181.738-80.809-181.738-180.5-181.738zm288.25 10.646c-49.845 0-90.245 76.619-90.245 171.095s40.406 171.1 90.251 171.1 90.251-76.619 90.251-171.1h-.007c0-94.503-40.4-171.095-90.248-171.095zm139.506 17.821c-17.526 0-31.735 68.628-31.735 153.274s14.2 153.274 31.735 153.274 31.744-68.646 31.744-153.277c0-84.649-14.215-153.271-31.742-153.271z" fill="#fff"/></svg>

<svg xmlns="http://www.w3.org/2000/svg" viewBox="0 0 640 512"><!--! Font Awesome Pro 6.3.0 by @fontawesome - https://fontawesome.com License - https://fontawesome.com/license (Commercial License) Copyright 2023 Fonticons, Inc. --><path fill="#fff" d="M180.5,74.262C80.813,74.262,0,155.633,0,256S80.819,437.738,180.5,437.738,361,356.373,361,256,280.191,74.262,180.5,74.262Zm288.25,10.646c-49.845,0-90.245,76.619-90.245,171.095s40.406,171.1,90.251,171.1,90.251-76.619,90.251-171.1H559C559,161.5,518.6,84.908,468.752,84.908Zm139.506,17.821c-17.526,0-31.735,68.628-31.735,153.274s14.2,153.274,31.735,153.274S640,340.631,640,256C640,171.351,625.785,102.729,608.258,102.729Z"/></svg>
